!!!COM:	Bach, Johann Sebastian
!!!CDT:	1685/02/21/-1750/07/28/
!!!OTL@@DE:	O Haupt voll Blut und Wunden
!!!SCT:	BWV 244/62
!!!PC#:	89
!!!AGN:	chorale
**kern	**kern	**kern	**kern
*ICvox	*ICvox	*ICvox	*ICvox
*Ibass	*Itenor	*Ialto	*Isoprn
*I"Bass	*I"Tenor	*I"Alto	*I"Soprano
*>[A,A,B]	*>[A,A,B]	*>[A,A,B]	*>[A,A,B]
*>norep[A,B]	*>norep[A,B]	*>norep[A,B]	*>norep[A,B]
*>A	*>A	*>A	*>A
*clefF4	*clefGv2	*clefG2	*clefG2
*k[f#c#]	*k[f#c#]	*k[f#c#]	*k[f#c#]
*b:	*b:	*b:	*b:
*M4/4	*M4/4	*M4/4	*M4/4
*met(c)	*met(c)	*met(c)	*met(c)
*MM100	*MM100	*MM100	*MM100
8BL	4B	4d	4f#
8AJ	.	.	.
=1	=1	=1	=1
4G	8BL	8dL	4b
.	8c#J	8eJ	.
4F#	4d	4f#	4a
4E	4e	8BL	4g
.	.	8c#J	.
4D	4A	4d	4f#
=2	=2	=2	=2
4GG#	4B	4d	2e
4AA	4A	4c#	.
4D;	4A;	4d;	4f#;
4AA#	4c#	4f#	4cc#
=3	=3	=3	=3
4BB	4B	4f#	4dd
4E	4B	4gnX	8cc#L
.	.	.	16ddL
.	.	.	16eeJJ
4F#	4B	4f#	4dd
4FF#	4A#	8eL	8cc#L
.	.	8dJ	8bJ
=4	=4	=4	=4
2.BB;	2.F#;	2.d;	2.b;
=:|!	=:|!	=:|!	=:|!
*>B	*>B	*>B	*>B
4B	8BL	4f#	4dd
.	8AJ	.	.
=5	=5	=5	=5
4E#	4G#	4g#	8cc#L
.	.	.	8bJ
4F#	4c#	4f#	4a
4F	4d	4g	4b
4E	4e	4g	4cc#
=6	=6	=6	=6
4F#X	8d	4a	2dd
.	4c	.	.
4GnX	.	4g	.
.	8B-	.	.
4D;	4A;	4f#;	4dd;
4D	8dL	4f#	4a
.	8cnXJ	.	.
=7	=7	=7	=7
4G	4BnX	8f#L	4b
.	.	8eJ	.
8F#L	4c	8d#L	4a
8EJ	.	8eJ	.
4D#	4B	[4f#	8bL
.	.	.	8aJ
4E	4B	8f#L]	4g
.	.	8eJ	.
=8	=8	=8	=8
2.BB;	2.B;	4e	2.f#;
.	.	2d#;	.
4G#	4e	4b	4dd
=9	=9	=9	=9
8AL	4e	4a	8cc#L
8BJ	.	.	8ddJ
4c#	8eL	4a	4ee
.	16f#L	.	.
.	16gJJ	.	.
8F#L	4f#	8aL	4dd
8G#J	.	8bJ	.
4A	4e	8cc#L	4cc#
.	.	8aJ	.
=10	=10	=10	=10
4D#	4f#	4a	2b
4E	4e	4g#	.
4AA;	4e;	4a;	4cc#;
4D	4A	4d	4f#
=11	=11	=11	=11
4C#	4A	4e	4gnX
4D	4A	4d	4f#
8CL	8AL	4e	4e
8BBJ	8BJ	.	.
4AA	4cnX	8f#L	8aL
.	.	8eJ	8gJ
=12	=12	=12	=12
4AA#	4c#X	4e	[2f#
4BB	4B	4d	.
4FF#;	4A#X;	4c#;	4f#;]
==	==	==	==
*-	*-	*-	*-
!!!hum2abc: -Q ''
!!!title: @{PC#}. @{OTL@@DE}
!!!YOR1: 371 vierstimmige Choralges&auml;nge von Johann Sebastian Bach, 
!!!YOR2: 4th ed. by Alfred D&ouml;rffel (Leipzig: Breitkopf und H&auml;rtel, 
!!!YOR2: c.1875). 178 pp. Plate "V.A.10".  reprint: J.S. Bach, 371 Four-Part 
!!!YOR4: Chorales (New York: Associated Music Publishers, Inc., c.1940).
!!!SMS: B&H, 4th ed, Alfred D&ouml;rffel, c.1875, plate V.A.10
!!!EED:  Craig Stuart Sapp
!!!EEV:  2009/05/22
